src/pos-icons/octagram.svg

<svg height="24" viewBox="0 0 24 24" width="24" xmlns="http://www.w3.org/2000/svg"><path d="m2.2 16.06 1.68-4.06-1.68-4.06 4.06-1.68 1.68-4.06 4.06 1.68 4.06-1.68 1.68 4.06 4.06 1.68-1.68 4.06 1.68 4.06-4.06 1.68-1.68 4.06-4.06-1.68-4.06 1.68-1.68-4.06z"/></svg>

<?xml version="1.0" encoding="UTF-8"?><!DOCTYPE svg PUBLIC "-//W3C//DTD SVG 1.1//EN" "http://www.w3.org/Graphics/SVG/1.1/DTD/svg11.dtd"><svg xmlns="http://www.w3.org/2000/svg" xmlns:xlink="http://www.w3.org/1999/xlink" version="1.1" id="mdi-octagram" width="24" height="24" viewBox="0 0 24 24"><path d="M2.2,16.06L3.88,12L2.2,7.94L6.26,6.26L7.94,2.2L12,3.88L16.06,2.2L17.74,6.26L21.8,7.94L20.12,12L21.8,16.06L17.74,17.74L16.06,21.8L12,20.12L7.94,21.8L6.26,17.74L2.2,16.06Z" /></svg>
